packages/ffe-icons/icons/open/500/sm/blur_on.svg

<svg xmlns="http://www.w3.org/2000/svg" height="20" viewBox="0 -960 960 960" width="20"><path d="M140-380.087q-8.957 0-15.435-6.178T118.087-401q0-8.957 6.478-15.435T140-422.913q8.957 0 14.935 6.478T160.913-401q0 8.957-6.178 14.935T140-380.087Zm0-157q-8.957 0-15.435-6.478T118.087-559q0-8.957 6.478-14.935T140-579.913q8.957 0 14.935 6.178T160.913-559q0 8.957-6.178 15.435T140-537.087Zm104 334q-17.813 0-29.363-11.762-11.55-11.763-11.55-29.151 0-17.813 11.762-29.863 11.763-12.05 29.151-12.05 17.813 0 29.863 12.05T285.913-244q0 17.813-12.05 29.363T244-203.087Zm0-157q-17.813 0-29.363-11.762-11.55-11.763-11.55-29.151 0-17.813 11.762-29.863 11.763-12.05 29.151-12.05 17.813 0 29.863 12.05T285.913-401q0 17.813-12.05 29.363T244-360.087Zm0-157q-17.813 0-29.363-12.05T203.087-559q0-17.813 11.762-29.363 11.763-11.55 29.151-11.55 17.813 0 29.863 11.762 12.05 11.763 12.05 29.151 0 17.813-12.05 29.863T244-517.087Zm0-157q-17.813 0-29.363-12.05T203.087-716q0-17.813 11.762-29.363 11.763-11.55 29.151-11.55 17.813 0 29.863 11.762 12.05 11.763 12.05 29.151 0 17.813-12.05 29.863T244-674.087Zm157.059 327q-23.016 0-38.494-15.713-15.478-15.714-15.478-38.435 0-22.722 15.713-38.7 15.714-15.978 38.435-15.978 22.722 0 38.7 15.919 15.978 15.92 15.978 38.935 0 23.016-15.919 38.494-15.92 15.478-38.935 15.478Zm0-157q-23.016 0-38.494-15.919-15.478-15.92-15.478-38.935 0-23.016 15.713-38.494 15.714-15.478 38.435-15.478 22.722 0 38.7 15.713 15.978 15.714 15.978 38.435 0 22.722-15.919 38.7-15.92 15.978-38.935 15.978Zm-.059 301q-17.813 0-29.363-11.762-11.55-11.763-11.55-29.151 0-17.813 11.762-29.863 11.763-12.05 29.151-12.05 17.813 0 29.863 12.05T442.913-244q0 17.813-12.05 29.363T401-203.087Zm0-471q-17.813 0-29.363-12.05T360.087-716q0-17.813 11.762-29.363 11.763-11.55 29.151-11.55 17.813 0 29.863 11.762 12.05 11.763 12.05 29.151 0 17.813-12.05 29.863T401-674.087Zm0 556q-8.957 0-14.935-6.478T380.087-140q0-8.957 6.178-14.935T401-160.913q8.957 0 15.435 6.178T422.913-140q0 8.957-6.478 15.435T401-118.087Zm0-681q-8.957 0-14.935-6.178T380.087-820q0-8.957 6.178-15.435T401-841.913q8.957 0 15.435 6.478T422.913-820q0 8.957-6.478 14.935T401-799.087Zm157.765 452q-22.722 0-38.7-15.713-15.978-15.714-15.978-38.435 0-22.722 15.919-38.7 15.92-15.978 38.935-15.978 23.016 0 38.494 15.919 15.478 15.92 15.478 38.935 0 23.016-15.713 38.494-15.714 15.478-38.435 15.478Zm0-157q-22.722 0-38.7-15.919-15.978-15.92-15.978-38.935 0-23.016 15.919-38.494 15.92-15.478 38.935-15.478 23.016 0 38.494 15.713 15.478 15.714 15.478 38.435 0 22.722-15.713 38.7-15.714 15.978-38.435 15.978Zm.235 301q-17.813 0-29.863-11.762-12.05-11.763-12.05-29.151 0-17.813 12.05-29.863T559-285.913q17.813 0 29.363 12.05T599.913-244q0 17.813-11.762 29.363-11.763 11.55-29.151 11.55Zm0-471q-17.813 0-29.863-12.05T517.087-716q0-17.813 12.05-29.363T559-756.913q17.813 0 29.363 11.762 11.55 11.763 11.55 29.151 0 17.813-11.762 29.863-11.763 12.05-29.151 12.05Zm0 556q-8.957 0-15.435-6.478T537.087-140q0-8.957 6.478-14.935T559-160.913q8.957 0 14.935 6.178T579.913-140q0 8.957-6.178 15.435T559-118.087Zm0-681q-8.957 0-15.435-6.178T537.087-820q0-8.957 6.478-15.435T559-841.913q8.957 0 14.935 6.478T579.913-820q0 8.957-6.178 14.935T559-799.087Zm157 596q-17.813 0-29.863-11.762-12.05-11.763-12.05-29.151 0-17.813 12.05-29.863T716-285.913q17.813 0 29.363 12.05T756.913-244q0 17.813-11.762 29.363-11.763 11.55-29.151 11.55Zm0-157q-17.813 0-29.863-11.762-12.05-11.763-12.05-29.151 0-17.813 12.05-29.863T716-442.913q17.813 0 29.363 12.05T756.913-401q0 17.813-11.762 29.363-11.763 11.55-29.151 11.55Zm0-157q-17.813 0-29.863-12.05T674.087-559q0-17.813 12.05-29.363T716-599.913q17.813 0 29.363 11.762 11.55 11.763 11.55 29.151 0 17.813-11.762 29.863-11.763 12.05-29.151 12.05Zm0-157q-17.813 0-29.863-12.05T674.087-716q0-17.813 12.05-29.363T716-756.913q17.813 0 29.363 11.762 11.55 11.763 11.55 29.151 0 17.813-11.762 29.863-11.763 12.05-29.151 12.05Zm104 294q-8.957 0-14.935-6.178T799.087-401q0-8.957 6.178-15.435T820-422.913q8.957 0 15.435 6.478T841.913-401q0 8.957-6.478 14.935T820-380.087Zm0-157q-8.957 0-14.935-6.478T799.087-559q0-8.957 6.178-14.935T820-579.913q8.957 0 15.435 6.178T841.913-559q0 8.957-6.478 15.435T820-537.087Z"/></svg>

<svg xmlns="http://www.w3.org/2000/svg" height="20" viewBox="0 -960 960 960" width="20"><path d="M140-380.09q-8.96 0-15.43-6.18-6.48-6.17-6.48-14.73 0-8.96 6.48-15.43 6.47-6.48 15.43-6.48t14.93 6.48q5.98 6.47 5.98 15.43t-6.18 14.93q-6.17 5.98-14.73 5.98Zm0-157q-8.96 0-15.43-6.48-6.48-6.47-6.48-15.43t6.48-14.93q6.47-5.98 15.43-5.98t14.93 6.18q5.98 6.17 5.98 14.73 0 8.96-6.18 15.43-6.17 6.48-14.73 6.48Zm104 334q-17.81 0-29.36-11.76T203.09-244q0-17.81 11.76-29.86T244-285.91q17.81 0 29.86 12.05T285.91-244q0 17.81-12.05 29.36T244-203.09Zm0-157q-17.81 0-29.36-11.76T203.09-401q0-17.81 11.76-29.86T244-442.91q17.81 0 29.86 12.05T285.91-401q0 17.81-12.05 29.36T244-360.09Zm0-157q-17.81 0-29.36-12.05T203.09-559q0-17.81 11.76-29.36T244-599.91q17.81 0 29.86 11.76T285.91-559q0 17.81-12.05 29.86T244-517.09Zm0-157q-17.81 0-29.36-12.05T203.09-716q0-17.81 11.76-29.36T244-756.91q17.81 0 29.86 11.76T285.91-716q0 17.81-12.05 29.86T244-674.09Zm157.06 327q-23.02 0-38.49-15.71-15.48-15.71-15.48-38.44 0-22.72 15.71-38.69 15.71-15.98 38.44-15.98 22.72 0 38.69 15.92 15.98 15.92 15.98 38.93 0 23.02-15.92 38.49-15.92 15.48-38.93 15.48Zm0-157q-23.02 0-38.49-15.92-15.48-15.92-15.48-38.93 0-23.02 15.71-38.49 15.71-15.48 38.44-15.48 22.72 0 38.69 15.71 15.98 15.71 15.98 38.44 0 22.72-15.92 38.69-15.92 15.98-38.93 15.98Zm-.06 301q-17.81 0-29.36-11.76T360.09-244q0-17.81 11.76-29.86T401-285.91q17.81 0 29.86 12.05T442.91-244q0 17.81-12.05 29.36T401-203.09Zm0-471q-17.81 0-29.36-12.05T360.09-716q0-17.81 11.76-29.36T401-756.91q17.81 0 29.86 11.76T442.91-716q0 17.81-12.05 29.86T401-674.09Zm0 556q-8.96 0-14.93-6.48-5.98-6.47-5.98-15.43t6.18-14.93q6.17-5.98 14.73-5.98 8.96 0 15.43 6.18 6.48 6.17 6.48 14.73 0 8.96-6.48 15.43-6.47 6.48-15.43 6.48Zm0-681q-8.96 0-14.93-6.18-5.98-6.17-5.98-14.73 0-8.96 6.18-15.43 6.17-6.48 14.73-6.48 8.96 0 15.43 6.48 6.48 6.47 6.48 15.43t-6.48 14.93q-6.47 5.98-15.43 5.98Zm157.76 452q-22.72 0-38.69-15.71-15.98-15.71-15.98-38.44 0-22.72 15.92-38.69 15.92-15.98 38.93-15.98 23.02 0 38.49 15.92 15.48 15.92 15.48 38.93 0 23.02-15.71 38.49-15.71 15.48-38.44 15.48Zm0-157q-22.72 0-38.69-15.92-15.98-15.92-15.98-38.93 0-23.02 15.92-38.49 15.92-15.48 38.93-15.48 23.02 0 38.49 15.71 15.48 15.71 15.48 38.44 0 22.72-15.71 38.69-15.71 15.98-38.44 15.98Zm.24 301q-17.81 0-29.86-11.76T517.09-244q0-17.81 12.05-29.86T559-285.91q17.81 0 29.36 12.05T599.91-244q0 17.81-11.76 29.36T559-203.09Zm0-471q-17.81 0-29.86-12.05T517.09-716q0-17.81 12.05-29.36T559-756.91q17.81 0 29.36 11.76T599.91-716q0 17.81-11.76 29.86T559-674.09Zm0 556q-8.96 0-15.43-6.48-6.48-6.47-6.48-15.43t6.48-14.93q6.47-5.98 15.43-5.98t14.93 6.18q5.98 6.17 5.98 14.73 0 8.96-6.18 15.43-6.17 6.48-14.73 6.48Zm0-681q-8.96 0-15.43-6.18-6.48-6.17-6.48-14.73 0-8.96 6.48-15.43 6.47-6.48 15.43-6.48t14.93 6.48q5.98 6.47 5.98 15.43t-6.18 14.93q-6.17 5.98-14.73 5.98Zm157 596q-17.81 0-29.86-11.76T674.09-244q0-17.81 12.05-29.86T716-285.91q17.81 0 29.36 12.05T756.91-244q0 17.81-11.76 29.36T716-203.09Zm0-157q-17.81 0-29.86-11.76T674.09-401q0-17.81 12.05-29.86T716-442.91q17.81 0 29.36 12.05T756.91-401q0 17.81-11.76 29.36T716-360.09Zm0-157q-17.81 0-29.86-12.05T674.09-559q0-17.81 12.05-29.36T716-599.91q17.81 0 29.36 11.76T756.91-559q0 17.81-11.76 29.86T716-517.09Zm0-157q-17.81 0-29.86-12.05T674.09-716q0-17.81 12.05-29.36T716-756.91q17.81 0 29.36 11.76T756.91-716q0 17.81-11.76 29.86T716-674.09Zm104 294q-8.96 0-14.93-6.18-5.98-6.17-5.98-14.73 0-8.96 6.18-15.43 6.17-6.48 14.73-6.48 8.96 0 15.43 6.48 6.48 6.47 6.48 15.43t-6.48 14.93q-6.47 5.98-15.43 5.98Zm0-157q-8.96 0-14.93-6.48-5.98-6.47-5.98-15.43t6.18-14.93q6.17-5.98 14.73-5.98 8.96 0 15.43 6.18 6.48 6.17 6.48 14.73 0 8.96-6.48 15.43-6.47 6.48-15.43 6.48Z"/></svg>
